qml/pages/images/icon-hide-show.svg

<?xml version="1.0" encoding="UTF-8" standalone="no"?>
<svg
   xmlns:dc="http://purl.org/dc/elements/1.1/"
   xmlns:cc="http://creativecommons.org/ns#"
   xmlns:rdf="http://www.w3.org/1999/02/22-rdf-syntax-ns#"
   xmlns:svg="http://www.w3.org/2000/svg"
   xmlns="http://www.w3.org/2000/svg"
   xmlns:sodipodi="http://sodipodi.sourceforge.net/DTD/sodipodi-0.dtd"
   xmlns:inkscape="http://www.inkscape.org/namespaces/inkscape"
   width="100%"
   height="100%"
   viewBox="0 0 96 96"
   version="1.1"
   xml:space="preserve"
   style="fill-rule:evenodd;clip-rule:evenodd;stroke-linejoin:round;stroke-miterlimit:2;"
   id="svg12"
   sodipodi:docname="icon-hide-show.svg"
   inkscape:version="0.92.4 (5da689c313, 2019-01-14)"><metadata
   id="metadata18"><rdf:RDF><cc:Work
       rdf:about=""><dc:format>image/svg+xml</dc:format><dc:type
         rdf:resource="http://purl.org/dc/dcmitype/StillImage" /></cc:Work></rdf:RDF></metadata><defs
   id="defs16">
        
        
    
            
            
            
        </defs><sodipodi:namedview
   pagecolor="#ffffff"
   bordercolor="#666666"
   borderopacity="1"
   objecttolerance="10"
   gridtolerance="10"
   guidetolerance="10"
   inkscape:pageopacity="0"
   inkscape:pageshadow="2"
   inkscape:window-width="1821"
   inkscape:window-height="1051"
   id="namedview14"
   showgrid="false"
   inkscape:zoom="4.8605422"
   inkscape:cx="69.740897"
   inkscape:cy="35.531328"
   inkscape:window-x="90"
   inkscape:window-y="-9"
   inkscape:window-maximized="1"
   inkscape:current-layer="svg12" />
    <rect
   style="fill:#000021;fill-opacity:0;stroke-width:1"
   height="95.796608"
   width="95.796608"
   y="0.2033899"
   x="0.20338975"
   id="icon-l-message_1_" /><path
   d="m 29.427,54.702 h -1.192 c -3.18,0 -5.767,-2.548 -5.767,-5.679 v -1.17 c 0,-3.132 2.587,-5.68 5.767,-5.68 h 1.192 c 3.18,0 5.767,2.548 5.767,5.68 v 1.17 c -0.001,3.131 -2.588,5.679 -5.767,5.679 z M 28.234,44.173 c -2.077,0 -3.767,1.651 -3.767,3.68 v 1.17 c 0,2.028 1.69,3.679 3.767,3.679 h 1.192 c 2.077,0 3.767,-1.65 3.767,-3.679 v -1.17 c 0,-2.029 -1.689,-3.68 -3.767,-3.68 z"
   style="fill:#ffffff;fill-rule:nonzero;opacity:0.6"
   id="path3"
   inkscape:connector-curvature="0" /><path
   d="m 46.868,54.702 h -1.192 c -3.18,0 -5.767,-2.548 -5.767,-5.679 v -1.17 c 0,-3.132 2.587,-5.68 5.767,-5.68 h 1.192 c 3.181,0 5.769,2.548 5.769,5.68 v 1.17 c 0,3.131 -2.588,5.679 -5.769,5.679 z M 45.675,44.173 c -2.077,0 -3.767,1.651 -3.767,3.68 v 1.17 c 0,2.028 1.69,3.679 3.767,3.679 h 1.192 c 2.078,0 3.769,-1.65 3.769,-3.679 v -1.17 c 0,-2.029 -1.691,-3.68 -3.769,-3.68 z"
   style="fill:#ffffff;fill-rule:nonzero;opacity:0.6"
   id="path5"
   inkscape:connector-curvature="0" /><path
   d="m 64.312,54.702 h -1.195 c -3.18,0 -5.767,-2.548 -5.767,-5.679 v -1.17 c 0,-3.132 2.587,-5.68 5.767,-5.68 h 1.195 c 3.178,0 5.764,2.548 5.764,5.68 v 1.17 c -10e-4,3.131 -2.587,5.679 -5.764,5.679 z M 63.116,44.173 c -2.077,0 -3.767,1.651 -3.767,3.68 v 1.17 c 0,2.028 1.689,3.679 3.767,3.679 h 1.195 c 2.075,0 3.764,-1.65 3.764,-3.679 v -1.17 c 0,-2.029 -1.688,-3.68 -3.764,-3.68 z"
   style="fill:#ffffff;fill-rule:nonzero;opacity:0.6"
   id="path7"
   inkscape:connector-curvature="0" />
</svg>

<?xml version="1.0" encoding="UTF-8" standalone="no"?>
<!DOCTYPE svg PUBLIC "-//W3C//DTD SVG 1.1//EN" "http://www.w3.org/Graphics/SVG/1.1/DTD/svg11.dtd">
<svg width="100%" height="100%" viewBox="0 0 96 96" version="1.1" xmlns="http://www.w3.org/2000/svg" xmlns:xlink="http://www.w3.org/1999/xlink" xml:space="preserve" xmlns:serif="http://www.serif.com/" style="fill-rule:evenodd;clip-rule:evenodd;stroke-linejoin:round;stroke-miterlimit:2;">
    <rect id="icon-l-message_1_" x="0.203" y="0.203" width="95.797" height="95.797" style="fill:rgb(0,0,33);fill-opacity:0;"/>
    <path id="path3" d="M29.427,54.702L28.235,54.702C25.055,54.702 22.468,52.154 22.468,49.023L22.468,47.853C22.468,44.721 25.055,42.173 28.235,42.173L29.427,42.173C32.607,42.173 35.194,44.721 35.194,47.853L35.194,49.023C35.193,52.154 32.606,54.702 29.427,54.702ZM28.234,44.173C26.157,44.173 24.467,45.824 24.467,47.853L24.467,49.023C24.467,51.051 26.157,52.702 28.234,52.702L29.426,52.702C31.503,52.702 33.193,51.052 33.193,49.023L33.193,47.853C33.193,45.824 31.504,44.173 29.426,44.173L28.234,44.173Z" style="fill:white;fill-opacity:0.4;fill-rule:nonzero;"/>
    <path id="path5" d="M46.868,54.702L45.676,54.702C42.496,54.702 39.909,52.154 39.909,49.023L39.909,47.853C39.909,44.721 42.496,42.173 45.676,42.173L46.868,42.173C50.049,42.173 52.637,44.721 52.637,47.853L52.637,49.023C52.637,52.154 50.049,54.702 46.868,54.702ZM45.675,44.173C43.598,44.173 41.908,45.824 41.908,47.853L41.908,49.023C41.908,51.051 43.598,52.702 45.675,52.702L46.867,52.702C48.945,52.702 50.636,51.052 50.636,49.023L50.636,47.853C50.636,45.824 48.945,44.173 46.867,44.173L45.675,44.173Z" style="fill:white;fill-opacity:0.4;fill-rule:nonzero;"/>
    <path id="path7" d="M64.312,54.702L63.117,54.702C59.937,54.702 57.35,52.154 57.35,49.023L57.35,47.853C57.35,44.721 59.937,42.173 63.117,42.173L64.312,42.173C67.49,42.173 70.076,44.721 70.076,47.853L70.076,49.023C70.075,52.154 67.489,54.702 64.312,54.702ZM63.116,44.173C61.039,44.173 59.349,45.824 59.349,47.853L59.349,49.023C59.349,51.051 61.038,52.702 63.116,52.702L64.311,52.702C66.386,52.702 68.075,51.052 68.075,49.023L68.075,47.853C68.075,45.824 66.387,44.173 64.311,44.173L63.116,44.173Z" style="fill:white;fill-opacity:0.4;fill-rule:nonzero;"/>
</svg>
